X:1
T:Humors of Tufts Street -- Reel
R:reel
B:Ryan's Mammoth Collection
Z:Contributed by Ray Davies,  ray:davies99.freeserve.co.uk
M:2/4
L:1/16
K:Edor
udc|BE~E2 BAFA|((3Bcd).A.F (DF).A.c|BE~E2 BABc|dBAF Edcd|
BE~E2 BAFA|((3Bcd).A.F (DF).A.c|BABd cABc|dBAF E2::
{G}FE|DFAc d2cA|BdAd BdAF|DFAc d2fe|dBAF EGFE|
DFAc d2cA|((3Bcd).A.c ((3Bcd).e.f|(gf)(fe) (ed)(dc)|((3Bcd).A.F E2:|
